src/assets/seed_marker_two.svg

<svg width="113" height="113" fill="none" xmlns="http://www.w3.org/2000/svg">
  <circle cx="56" cy="57" r="26" fill="#fff"/>
  <path d="M55.6269 62.6443c.2099-.2108.5509-.2108.7608 0l2.5859 2.598c2.1024 2.1123 2.1024 5.5348 0 7.6471l-2.5859 2.598c-.2099.2108-.5509.2108-.7608 0l-2.5858-2.598c-2.1025-2.1123-2.1025-5.5348 0-7.6471l2.5858-2.598z" fill="#EDE221"/>
  <g filter="url(#filter0_i)">
    <path d="M56.0275 75.6446c-2.7441-8.188-1.2251-11.6971-.6126-12.7498.0613-.1365.2695-.4094.6125-.4094s.5309.2729.6125.4094c1.3476 2.8658-.6737 12.7498-.6124 12.7498z" fill="#BBBE1D"/>
  </g>
  <path d="M55.8285 72.6683c.7161-2.5706 1.0854-21.4466-3.0325-27.1019" stroke="#00CF88" stroke-width="1.94631" stroke-linecap="round"/>
  <path d="M53.7891 47.294c-.1979-1.3851-1.492-2.4725-2.8904-2.4288l-.905.0283c-.1398.0043-.2372.1202-.2174.2587.1979 1.385 1.492 2.4724 2.8904 2.4287l.9051-.0283c.1398-.0043.2371-.1201.2173-.2586z" fill="#00CF88"/>
  <g filter="url(#filter1_d)">
    <path d="M53.8219 47.3444c-.1282-.8976-.9668-1.6022-1.873-1.5739l-.5865.0183c-.0906.0028-.1537.0779-.1408.1676.1282.8976.9668 1.6022 1.873 1.5739l.5865-.0183c.0906-.0028.1537-.0779.1408-.1676z" fill="#268766"/>
  </g>
  <path d="M56.0853 63.3944c-1.7066.9946-3.8963.4174-4.891-1.2891l-.5391-.9251c-.0994-.1706-.0417-.3896.1289-.4891 1.7066-.9946 3.8964-.4174 4.891 1.2892l.5391.925c.0995.1707.0418.3897-.1289.4891z" fill="#00CF88"/>
  <g filter="url(#filter2_d)">
    <path d="M56.1657 63.3872c-1.1059.6445-2.5249.2705-3.1694-.8354l-.3493-.5995c-.0645-.1106-.0271-.2525.0835-.3169 1.1059-.6445 2.5249-.2705 3.1694.8354l.3494.5994c.0644.1106.027.2525-.0836.317z" fill="#268766"/>
  </g>
  <path d="M56.3208 59.9796c.47-2.6371 2.4282-8.6946 6.5013-11.8277" stroke="#00CF88" stroke-width="1.16778" stroke-linecap="round"/>
  <path d="M55.1459 53.7914c-.705-1.8277-2.9922-5.2637-6.5014-4.3864" stroke="#268766" stroke-width="1.16778" stroke-linecap="round"/>
  <path d="M59.4262 51.3185c-1.5829-1.2238-2.0217-3.6009-.9802-5.3092l.674-1.1057c.1041-.1708.3169-.2101.4752-.0877 1.5828 1.2239 2.0217 3.6009.9802 5.3093l-.674 1.1056c-.1042.1709-.3169.2101-.4752.0877z" fill="#00CF88"/>
  <g filter="url(#filter3_d)">
    <path d="M59.4654 51.3945c-1.0257-.7931-1.3101-2.3335-.6352-3.4405l.4368-.7165c.0675-.1107.2053-.1361.3079-.0568 1.0257.7931 1.3101 2.3334.6352 3.4405l-.4368.7165c-.0675.1107-.2054.1361-.3079.0568z" fill="#268766"/>
  </g>
  <path d="M53.5818 46.5624c-.5212-1.2984.0558-2.8871 1.2888-3.5485l.7979-.4281c.1233-.0661.2654-.0145.3176.1154.5211 1.2984-.0559 2.8872-1.2888 3.5485l-.798.4281c-.1232.0661-.2654.0145-.3175-.1154z" fill="#00CF88"/>
  <g filter="url(#filter4_d)">
    <path d="M53.5783 46.6226c-.3377-.8414.0362-1.8709.8351-2.2995l.5171-.2774c.0799-.0429.172-.0094.2058.0748.3377.8414-.0362 1.8709-.8352 2.2995l-.517.2774c-.0799.0428-.1721.0094-.2058-.0748z" fill="#268766"/>
  </g>
  <path d="M53.4385 51.2437c-.7687 1.8472-2.949 2.8908-4.8699 2.3308l-1.2431-.3624c-.1921-.0559-.2855-.2511-.2087-.4358.7688-1.8472 2.9491-2.8908 4.87-2.3309l1.2431.3624c.1921.056.2855.2511.2086.4359z" fill="#00CF88"/>
  <g filter="url(#filter5_d)">
    <path d="M53.5018 51.1861c-.4981 1.197-1.911 1.8733-3.1558 1.5104l-.8056-.2348c-.1244-.0363-.185-.1627-.1351-.2825.4981-1.197 1.911-1.8733 3.1558-1.5104l.8056.2348c.1244.0363.185.1628.1351.2825z" fill="#268766"/>
  </g>
  <path d="M51.0533 49.5539c-1.0311-.1473-1.8407-1.1108-1.8082-2.1518l.0211-.6738c.0032-.1041.0895-.1766.1926-.1618 1.0311.1473 1.8406 1.1107 1.8081 2.1518l-.021.6738c-.0033.1041-.0895.1765-.1926.1618z" fill="#00CF88"/>
  <g filter="url(#filter6_d)">
    <path d="M51.0906 49.5772c-.6682-.0955-1.1928-.7198-1.1717-1.3945l.0136-.4366c.0021-.0674.058-.1144.1248-.1048.6682.0954 1.1928.7197 1.1717 1.3944l-.0136.4366c-.0021.0675-.058.1144-.1248.1049z" fill="#268766"/>
  </g>
  <path d="M58.2561 54.7509c1.7151 1.4444 4.2763 1.225 5.7206-.49l.783-.9296c.1444-.1715.1225-.4276-.049-.5721-1.7151-1.4444-4.2763-1.225-5.7207.49l-.7829.9296c-.1444.1716-.1225.4277.049.5721z" fill="#00CF88"/>
  <g filter="url(#filter7_d)">
    <path d="M58.1676 54.7281c1.1114.936 2.7711.7938 3.7071-.3176l.5073-.6024c.0936-.1111.0794-.2771-.0317-.3707-1.1114-.936-2.7711-.7938-3.7071.3176l-.5073.6024c-.0936.1111-.0794.2771.0317.3707z" fill="#268766"/>
  </g>
  <path d="M56.9893 62.6335c2.2384-.1309 3.9468-2.0516 3.8159-4.29l-.071-1.2133c-.0131-.2238-.2052-.3947-.429-.3816-2.2384.1309-3.9468 2.0517-3.8159 4.2901l.071 1.2133c.0131.2238.2051.3946.429.3815z" fill="#00CF88"/>
  <g filter="url(#filter8_d)">
    <path d="M56.9092 62.6785c1.4506-.0848 2.5577-1.3295 2.4728-2.78l-.046-.7863c-.0084-.145-.1329-.2557-.278-.2472-1.4505.0848-2.5576 1.3295-2.4728 2.78l.046.7862c.0085.1451.133.2558.278.2473z" fill="#268766"/>
  </g>
  <defs>
    <filter id="filter0_i" x="54.4409" y="62.4854" width="2.66319" height="13.9378" filterUnits="userSpaceOnUse" color-interpolation-filters="sRGB">
      <feFlood flood-opacity="0" result="BackgroundImageFix"/>
      <feBlend in="SourceGraphic" in2="BackgroundImageFix" result="shape"/>
      <feColorMatrix in="SourceAlpha" values="0 0 0 0 0 0 0 0 0 0 0 0 0 0 0 0 0 0 127 0" result="hardAlpha"/>
      <feOffset dy=".778523"/>
      <feGaussianBlur stdDeviation=".778523"/>
      <feComposite in2="hardAlpha" operator="arithmetic" k2="-1" k3="1"/>
      <feColorMatrix values="0 0 0 0 0 0 0 0 0 0 0 0 0 0 0 0 0 0 0.15 0"/>
      <feBlend in2="shape" result="effect1_innerShadow"/>
    </filter>
    <filter id="filter1_d" x="47.0059" y="41.5555" width="13.1387" height="12.2964" filterUnits="userSpaceOnUse" color-interpolation-filters="sRGB">
      <feFlood flood-opacity="0" result="BackgroundImageFix"/>
      <feColorMatrix in="SourceAlpha" values="0 0 0 0 0 0 0 0 0 0 0 0 0 0 0 0 0 0 127 0"/>
      <feOffset dx="1.0535" dy="1.0535"/>
      <feGaussianBlur stdDeviation="2.63374"/>
      <feColorMatrix values="0 0 0 0 0 0 0 0 0 0 0 0 0 0 0 0 0 0 0.15 0"/>
      <feBlend in2="BackgroundImageFix" result="effect1_dropShadow"/>
      <feBlend in="SourceGraphic" in2="effect1_dropShadow" result="shape"/>
    </filter>
    <filter id="filter2_d" x="48.4014" y="57.1058" width="14.2004" height="12.918" filterUnits="userSpaceOnUse" color-interpolation-filters="sRGB">
      <feFlood flood-opacity="0" result="BackgroundImageFix"/>
      <feColorMatrix in="SourceAlpha" values="0 0 0 0 0 0 0 0 0 0 0 0 0 0 0 0 0 0 127 0"/>
      <feOffset dx="1.0535" dy="1.0535"/>
      <feGaussianBlur stdDeviation="2.63374"/>
      <feColorMatrix values="0 0 0 0 0 0 0 0 0 0 0 0 0 0 0 0 0 0 0.15 0"/>
      <feBlend in2="BackgroundImageFix" result="effect1_dropShadow"/>
      <feBlend in="SourceGraphic" in2="effect1_dropShadow" result="shape"/>
    </filter>
    <filter id="filter3_d" x="54.25" y="42.9203" width="12.6473" height="14.8411" filterUnits="userSpaceOnUse" color-interpolation-filters="sRGB">
      <feFlood flood-opacity="0" result="BackgroundImageFix"/>
      <feColorMatrix in="SourceAlpha" values="0 0 0 0 0 0 0 0 0 0 0 0 0 0 0 0 0 0 127 0"/>
      <feOffset dx="1.0535" dy="1.0535"/>
      <feGaussianBlur stdDeviation="2.63374"/>
      <feColorMatrix values="0 0 0 0 0 0 0 0 0 0 0 0 0 0 0 0 0 0 0.15 0"/>
      <feBlend in2="BackgroundImageFix" result="effect1_dropShadow"/>
      <feBlend in="SourceGraphic" in2="effect1_dropShadow" result="shape"/>
    </filter>
    <filter id="filter4_d" x="49.24" y="39.8129" width="12.3417" height="13.224" filterUnits="userSpaceOnUse" color-interpolation-filters="sRGB">
      <feFlood flood-opacity="0" result="BackgroundImageFix"/>
      <feColorMatrix in="SourceAlpha" values="0 0 0 0 0 0 0 0 0 0 0 0 0 0 0 0 0 0 127 0"/>
      <feOffset dx="1.0535" dy="1.0535"/>
      <feGaussianBlur stdDeviation="2.63374"/>
      <feColorMatrix values="0 0 0 0 0 0 0 0 0 0 0 0 0 0 0 0 0 0 0.15 0"/>
      <feBlend in2="BackgroundImageFix" result="effect1_dropShadow"/>
      <feBlend in="SourceGraphic" in2="effect1_dropShadow" result="shape"/>
    </filter>
    <filter id="filter5_d" x="45.1738" y="46.3568" width="14.6665" height="12.7587" filterUnits="userSpaceOnUse" color-interpolation-filters="sRGB">
      <feFlood flood-opacity="0" result="BackgroundImageFix"/>
      <feColorMatrix in="SourceAlpha" values="0 0 0 0 0 0 0 0 0 0 0 0 0 0 0 0 0 0 127 0"/>
      <feOffset dx="1.0535" dy="1.0535"/>
      <feGaussianBlur stdDeviation="2.63374"/>
      <feColorMatrix values="0 0 0 0 0 0 0 0 0 0 0 0 0 0 0 0 0 0 0.15 0"/>
      <feBlend in2="BackgroundImageFix" result="effect1_dropShadow"/>
      <feBlend in="SourceGraphic" in2="effect1_dropShadow" result="shape"/>
    </filter>
    <filter id="filter6_d" x="45.7042" y="43.4261" width="11.8463" height="12.4734" filterUnits="userSpaceOnUse" color-interpolation-filters="sRGB">
      <feFlood flood-opacity="0" result="BackgroundImageFix"/>
      <feColorMatrix in="SourceAlpha" values="0 0 0 0 0 0 0 0 0 0 0 0 0 0 0 0 0 0 127 0"/>
      <feOffset dx="1.0535" dy="1.0535"/>
      <feGaussianBlur stdDeviation="2.63374"/>
      <feColorMatrix values="0 0 0 0 0 0 0 0 0 0 0 0 0 0 0 0 0 0 0.15 0"/>
      <feBlend in2="BackgroundImageFix" result="effect1_dropShadow"/>
      <feBlend in="SourceGraphic" in2="effect1_dropShadow" result="shape"/>
    </filter>
    <filter id="filter7_d" x="53.86" y="48.6049" width="14.9049" height="13.0629" filterUnits="userSpaceOnUse" color-interpolation-filters="sRGB">
      <feFlood flood-opacity="0" result="BackgroundImageFix"/>
      <feColorMatrix in="SourceAlpha" values="0 0 0 0 0 0 0 0 0 0 0 0 0 0 0 0 0 0 127 0"/>
      <feOffset dx="1.0535" dy="1.0535"/>
      <feGaussianBlur stdDeviation="2.63374"/>
      <feColorMatrix values="0 0 0 0 0 0 0 0 0 0 0 0 0 0 0 0 0 0 0.15 0"/>
      <feBlend in2="BackgroundImageFix" result="effect1_dropShadow"/>
      <feBlend in="SourceGraphic" in2="effect1_dropShadow" result="shape"/>
    </filter>
    <filter id="filter8_d" x="52.3667" y="54.6508" width="13.3409" height="14.3494" filterUnits="userSpaceOnUse" color-interpolation-filters="sRGB">
      <feFlood flood-opacity="0" result="BackgroundImageFix"/>
      <feColorMatrix in="SourceAlpha" values="0 0 0 0 0 0 0 0 0 0 0 0 0 0 0 0 0 0 127 0"/>
      <feOffset dx="1.0535" dy="1.0535"/>
      <feGaussianBlur stdDeviation="2.63374"/>
      <feColorMatrix values="0 0 0 0 0 0 0 0 0 0 0 0 0 0 0 0 0 0 0.15 0"/>
      <feBlend in2="BackgroundImageFix" result="effect1_dropShadow"/>
      <feBlend in="SourceGraphic" in2="effect1_dropShadow" result="shape"/>
    </filter>
  </defs>
</svg>

<svg width="113" height="113" viewBox="0 0 113 113" fill="none" xmlns="http://www.w3.org/2000/svg">
<g filter="url(#filter0_d)">
<path d="M82 56C82 70.3594 70.3594 82 56 82C41.6406 82 30 70.3594 30 56C30 41.6406 41.6406 30 56 30C70.3594 30 82 41.6406 82 56Z" fill="white"/>
<path d="M56 83.5C71.1878 83.5 83.5 71.1878 83.5 56C83.5 40.8122 71.1878 28.5 56 28.5C40.8122 28.5 28.5 40.8122 28.5 56C28.5 71.1878 40.8122 83.5 56 83.5Z" stroke="#00CF88" stroke-width="3"/>
</g>
<path d="M55.6269 62.6443C55.8368 62.4335 56.1778 62.4335 56.3877 62.6443L58.9736 65.2423C61.076 67.3546 61.076 70.7771 58.9736 72.8894L56.3877 75.4874C56.1778 75.6982 55.8368 75.6982 55.6269 75.4874L53.0411 72.8894C50.9386 70.7771 50.9386 67.3546 53.0411 65.2423L55.6269 62.6443Z" fill="#EDE221"/>
<g filter="url(#filter1_i)">
<path d="M56.0275 75.6446C53.2834 67.4566 54.8024 63.9475 55.4149 62.8948C55.4762 62.7583 55.6844 62.4854 56.0274 62.4854C56.3704 62.4854 56.5583 62.7583 56.6399 62.8948C57.9875 65.7606 55.9662 75.6446 56.0275 75.6446Z" fill="#BBBE1D"/>
</g>
<path d="M55.8285 72.6683C56.5446 70.0977 56.9139 51.2217 52.796 45.5664" stroke="#00CF88" stroke-width="1.94631" stroke-linecap="round"/>
<path d="M53.7891 47.294C53.5912 45.9089 52.2971 44.8215 50.8987 44.8652L49.9937 44.8935C49.8539 44.8978 49.7565 45.0137 49.7763 45.1522C49.9742 46.5372 51.2683 47.6246 52.6667 47.5809L53.5718 47.5526C53.7116 47.5483 53.8089 47.4325 53.7891 47.294Z" fill="#00CF88"/>
<g filter="url(#filter2_d)">
<path d="M53.8219 47.3444C53.6937 46.4468 52.8551 45.7422 51.9489 45.7705L51.3624 45.7888C51.2718 45.7916 51.2087 45.8667 51.2216 45.9564C51.3498 46.854 52.1884 47.5586 53.0946 47.5303L53.6811 47.512C53.7717 47.5092 53.8348 47.4341 53.8219 47.3444Z" fill="#268766"/>
</g>
<path d="M56.0853 63.3944C54.3787 64.389 52.189 63.8118 51.1943 62.1053L50.6552 61.1802C50.5558 61.0096 50.6135 60.7906 50.7841 60.6911C52.4907 59.6965 54.6805 60.2737 55.6751 61.9803L56.2142 62.9053C56.3137 63.076 56.256 63.295 56.0853 63.3944Z" fill="#00CF88"/>
<g filter="url(#filter3_d)">
<path d="M56.1657 63.3872C55.0598 64.0317 53.6408 63.6577 52.9963 62.5518L52.647 61.9523C52.5825 61.8417 52.6199 61.6998 52.7305 61.6354C53.8364 60.9909 55.2554 61.3649 55.8999 62.4708L56.2493 63.0702C56.3137 63.1808 56.2763 63.3227 56.1657 63.3872Z" fill="#268766"/>
</g>
<path d="M56.3208 59.9796C56.7908 57.3425 58.749 51.285 62.8221 48.1519" stroke="#00CF88" stroke-width="1.16778" stroke-linecap="round"/>
<path d="M55.1459 53.7914C54.4409 51.9637 52.1537 48.5277 48.6445 49.405" stroke="#268766" stroke-width="1.16778" stroke-linecap="round"/>
<path d="M59.4262 51.3185C57.8433 50.0947 57.4045 47.7176 58.446 46.0093L59.12 44.9036C59.2241 44.7328 59.4369 44.6935 59.5952 44.8159C61.178 46.0398 61.6169 48.4168 60.5754 50.1252L59.9014 51.2308C59.7972 51.4017 59.5845 51.4409 59.4262 51.3185Z" fill="#00CF88"/>
<g filter="url(#filter4_d)">
<path d="M59.4654 51.3945C58.4397 50.6014 58.1553 49.061 58.8302 47.954L59.267 47.2375C59.3345 47.1268 59.4723 47.1014 59.5749 47.1807C60.6006 47.9738 60.885 49.5141 60.2101 50.6212L59.7733 51.3377C59.7058 51.4484 59.5679 51.4738 59.4654 51.3945Z" fill="#268766"/>
</g>
<path d="M53.5818 46.5624C53.0606 45.264 53.6376 43.6753 54.8706 43.0139L55.6685 42.5858C55.7918 42.5197 55.9339 42.5713 55.9861 42.7012C56.5072 43.9996 55.9302 45.5884 54.6973 46.2497L53.8993 46.6778C53.7761 46.7439 53.6339 46.6923 53.5818 46.5624Z" fill="#00CF88"/>
<g filter="url(#filter5_d)">
<path d="M53.5783 46.6226C53.2406 45.7812 53.6145 44.7517 54.4134 44.3231L54.9305 44.0457C55.0104 44.0028 55.1025 44.0363 55.1363 44.1205C55.474 44.9619 55.1001 45.9914 54.3011 46.42L53.7841 46.6974C53.7042 46.7402 53.612 46.7068 53.5783 46.6226Z" fill="#268766"/>
</g>
<path d="M53.4385 51.2437C52.6698 53.0909 50.4895 54.1345 48.5686 53.5745L47.3255 53.2121C47.1334 53.1562 47.04 52.961 47.1168 52.7763C47.8856 50.9291 50.0659 49.8855 51.9868 50.4454L53.2299 50.8078C53.422 50.8638 53.5154 51.0589 53.4385 51.2437Z" fill="#00CF88"/>
<g filter="url(#filter6_d)">
<path d="M53.5018 51.1861C53.0037 52.3831 51.5908 53.0594 50.346 52.6965L49.5404 52.4617C49.416 52.4254 49.3554 52.299 49.4053 52.1792C49.9034 50.9822 51.3163 50.3059 52.5611 50.6688L53.3667 50.9036C53.4911 50.9399 53.5517 51.0664 53.5018 51.1861Z" fill="#268766"/>
</g>
<path d="M51.0533 49.5539C50.0222 49.4066 49.2126 48.4431 49.2451 47.4021L49.2662 46.7283C49.2694 46.6242 49.3557 46.5517 49.4588 46.5665C50.4899 46.7138 51.2994 47.6772 51.2669 48.7183L51.2459 49.3921C51.2426 49.4962 51.1564 49.5686 51.0533 49.5539Z" fill="#00CF88"/>
<g filter="url(#filter7_d)">
<path d="M51.0906 49.5772C50.4224 49.4817 49.8978 48.8574 49.9189 48.1827L49.9325 47.7461C49.9346 47.6787 49.9905 47.6317 50.0573 47.6413C50.7255 47.7367 51.2501 48.361 51.229 49.0357L51.2154 49.4723C51.2133 49.5398 51.1574 49.5867 51.0906 49.5772Z" fill="#268766"/>
</g>
<path d="M58.2561 54.7509C59.9712 56.1953 62.5324 55.9759 63.9767 54.2609L64.7597 53.3313C64.9041 53.1598 64.8822 52.9037 64.7107 52.7592C62.9956 51.3148 60.4344 51.5342 58.99 53.2492L58.2071 54.1788C58.0627 54.3504 58.0846 54.6065 58.2561 54.7509Z" fill="#00CF88"/>
<g filter="url(#filter8_d)">
<path d="M58.1676 54.7281C59.279 55.6641 60.9387 55.5219 61.8747 54.4105L62.382 53.8081C62.4756 53.697 62.4614 53.531 62.3503 53.4374C61.2389 52.5014 59.5792 52.6436 58.6432 53.755L58.1359 54.3574C58.0423 54.4685 58.0565 54.6345 58.1676 54.7281Z" fill="#268766"/>
</g>
<path d="M56.9893 62.6335C59.2277 62.5026 60.9361 60.5819 60.8052 58.3435L60.7342 57.1302C60.7211 56.9064 60.529 56.7355 60.3052 56.7486C58.0668 56.8795 56.3584 58.8003 56.4893 61.0387L56.5603 62.252C56.5734 62.4758 56.7654 62.6466 56.9893 62.6335Z" fill="#00CF88"/>
<g filter="url(#filter9_d)">
<path d="M56.9092 62.6785C58.3598 62.5937 59.4669 61.349 59.382 59.8985L59.336 59.1122C59.3276 58.9672 59.2031 58.8565 59.058 58.865C57.6075 58.9498 56.5004 60.1945 56.5852 61.645L56.6312 62.4312C56.6397 62.5763 56.7642 62.687 56.9092 62.6785Z" fill="#268766"/>
</g>
<defs>
<filter id="filter0_d" x="12" y="12" width="88" height="88" filterUnits="userSpaceOnUse" color-interpolation-filters="sRGB">
<feFlood flood-opacity="0" result="BackgroundImageFix"/>
<feColorMatrix in="SourceAlpha" type="matrix" values="0 0 0 0 0 0 0 0 0 0 0 0 0 0 0 0 0 0 127 0"/>
<feOffset/>
<feGaussianBlur stdDeviation="7.5"/>
<feColorMatrix type="matrix" values="0 0 0 0 0 0 0 0 0 0 0 0 0 0 0 0 0 0 0.25 0"/>
<feBlend mode="normal" in2="BackgroundImageFix" result="effect1_dropShadow"/>
<feBlend mode="normal" in="SourceGraphic" in2="effect1_dropShadow" result="shape"/>
</filter>
<filter id="filter1_i" x="54.4409" y="62.4854" width="2.66319" height="13.9378" filterUnits="userSpaceOnUse" color-interpolation-filters="sRGB">
<feFlood flood-opacity="0" result="BackgroundImageFix"/>
<feBlend mode="normal" in="SourceGraphic" in2="BackgroundImageFix" result="shape"/>
<feColorMatrix in="SourceAlpha" type="matrix" values="0 0 0 0 0 0 0 0 0 0 0 0 0 0 0 0 0 0 127 0" result="hardAlpha"/>
<feOffset dy="0.778523"/>
<feGaussianBlur stdDeviation="0.778523"/>
<feComposite in2="hardAlpha" operator="arithmetic" k2="-1" k3="1"/>
<feColorMatrix type="matrix" values="0 0 0 0 0 0 0 0 0 0 0 0 0 0 0 0 0 0 0.15 0"/>
<feBlend mode="normal" in2="shape" result="effect1_innerShadow"/>
</filter>
<filter id="filter2_d" x="47.0059" y="41.5555" width="13.1387" height="12.2964" filterUnits="userSpaceOnUse" color-interpolation-filters="sRGB">
<feFlood flood-opacity="0" result="BackgroundImageFix"/>
<feColorMatrix in="SourceAlpha" type="matrix" values="0 0 0 0 0 0 0 0 0 0 0 0 0 0 0 0 0 0 127 0"/>
<feOffset dx="1.0535" dy="1.0535"/>
<feGaussianBlur stdDeviation="2.63374"/>
<feColorMatrix type="matrix" values="0 0 0 0 0 0 0 0 0 0 0 0 0 0 0 0 0 0 0.15 0"/>
<feBlend mode="normal" in2="BackgroundImageFix" result="effect1_dropShadow"/>
<feBlend mode="normal" in="SourceGraphic" in2="effect1_dropShadow" result="shape"/>
</filter>
<filter id="filter3_d" x="48.3163" y="56.2543" width="14.3707" height="14.6208" filterUnits="userSpaceOnUse" color-interpolation-filters="sRGB">
<feFlood flood-opacity="0" result="BackgroundImageFix"/>
<feColorMatrix in="SourceAlpha" type="matrix" values="0 0 0 0 0 0 0 0 0 0 0 0 0 0 0 0 0 0 127 0"/>
<feOffset dx="1.0535" dy="1.0535"/>
<feGaussianBlur stdDeviation="2.63374"/>
<feColorMatrix type="matrix" values="0 0 0 0 0 0 0 0 0 0 0 0 0 0 0 0 0 0 0.15 0"/>
<feBlend mode="normal" in2="BackgroundImageFix" result="effect1_dropShadow"/>
<feBlend mode="normal" in="SourceGraphic" in2="effect1_dropShadow" result="shape"/>
</filter>
<filter id="filter4_d" x="54.25" y="42.9203" width="12.6473" height="14.8411" filterUnits="userSpaceOnUse" color-interpolation-filters="sRGB">
<feFlood flood-opacity="0" result="BackgroundImageFix"/>
<feColorMatrix in="SourceAlpha" type="matrix" values="0 0 0 0 0 0 0 0 0 0 0 0 0 0 0 0 0 0 127 0"/>
<feOffset dx="1.0535" dy="1.0535"/>
<feGaussianBlur stdDeviation="2.63374"/>
<feColorMatrix type="matrix" values="0 0 0 0 0 0 0 0 0 0 0 0 0 0 0 0 0 0 0.15 0"/>
<feBlend mode="normal" in2="BackgroundImageFix" result="effect1_dropShadow"/>
<feBlend mode="normal" in="SourceGraphic" in2="effect1_dropShadow" result="shape"/>
</filter>
<filter id="filter5_d" x="49.24" y="39.8129" width="12.3417" height="13.224" filterUnits="userSpaceOnUse" color-interpolation-filters="sRGB">
<feFlood flood-opacity="0" result="BackgroundImageFix"/>
<feColorMatrix in="SourceAlpha" type="matrix" values="0 0 0 0 0 0 0 0 0 0 0 0 0 0 0 0 0 0 127 0"/>
<feOffset dx="1.0535" dy="1.0535"/>
<feGaussianBlur stdDeviation="2.63374"/>
<feColorMatrix type="matrix" values="0 0 0 0 0 0 0 0 0 0 0 0 0 0 0 0 0 0 0.15 0"/>
<feBlend mode="normal" in2="BackgroundImageFix" result="effect1_dropShadow"/>
<feBlend mode="normal" in="SourceGraphic" in2="effect1_dropShadow" result="shape"/>
</filter>
<filter id="filter6_d" x="45.1738" y="46.3568" width="14.6665" height="12.7587" filterUnits="userSpaceOnUse" color-interpolation-filters="sRGB">
<feFlood flood-opacity="0" result="BackgroundImageFix"/>
<feColorMatrix in="SourceAlpha" type="matrix" values="0 0 0 0 0 0 0 0 0 0 0 0 0 0 0 0 0 0 127 0"/>
<feOffset dx="1.0535" dy="1.0535"/>
<feGaussianBlur stdDeviation="2.63374"/>
<feColorMatrix type="matrix" values="0 0 0 0 0 0 0 0 0 0 0 0 0 0 0 0 0 0 0.15 0"/>
<feBlend mode="normal" in2="BackgroundImageFix" result="effect1_dropShadow"/>
<feBlend mode="normal" in="SourceGraphic" in2="effect1_dropShadow" result="shape"/>
</filter>
<filter id="filter7_d" x="45.7042" y="43.4261" width="11.8463" height="12.4734" filterUnits="userSpaceOnUse" color-interpolation-filters="sRGB">
<feFlood flood-opacity="0" result="BackgroundImageFix"/>
<feColorMatrix in="SourceAlpha" type="matrix" values="0 0 0 0 0 0 0 0 0 0 0 0 0 0 0 0 0 0 127 0"/>
<feOffset dx="1.0535" dy="1.0535"/>
<feGaussianBlur stdDeviation="2.63374"/>
<feColorMatrix type="matrix" values="0 0 0 0 0 0 0 0 0 0 0 0 0 0 0 0 0 0 0.15 0"/>
<feBlend mode="normal" in2="BackgroundImageFix" result="effect1_dropShadow"/>
<feBlend mode="normal" in="SourceGraphic" in2="effect1_dropShadow" result="shape"/>
</filter>
<filter id="filter8_d" x="53.7524" y="47.5287" width="15.1201" height="15.2152" filterUnits="userSpaceOnUse" color-interpolation-filters="sRGB">
<feFlood flood-opacity="0" result="BackgroundImageFix"/>
<feColorMatrix in="SourceAlpha" type="matrix" values="0 0 0 0 0 0 0 0 0 0 0 0 0 0 0 0 0 0 127 0"/>
<feOffset dx="1.0535" dy="1.0535"/>
<feGaussianBlur stdDeviation="2.63374"/>
<feColorMatrix type="matrix" values="0 0 0 0 0 0 0 0 0 0 0 0 0 0 0 0 0 0 0.15 0"/>
<feBlend mode="normal" in2="BackgroundImageFix" result="effect1_dropShadow"/>
<feBlend mode="normal" in="SourceGraphic" in2="effect1_dropShadow" result="shape"/>
</filter>
<filter id="filter9_d" x="52.2177" y="54.6356" width="13.639" height="14.3793" filterUnits="userSpaceOnUse" color-interpolation-filters="sRGB">
<feFlood flood-opacity="0" result="BackgroundImageFix"/>
<feColorMatrix in="SourceAlpha" type="matrix" values="0 0 0 0 0 0 0 0 0 0 0 0 0 0 0 0 0 0 127 0"/>
<feOffset dx="1.0535" dy="1.0535"/>
<feGaussianBlur stdDeviation="2.63374"/>
<feColorMatrix type="matrix" values="0 0 0 0 0 0 0 0 0 0 0 0 0 0 0 0 0 0 0.15 0"/>
<feBlend mode="normal" in2="BackgroundImageFix" result="effect1_dropShadow"/>
<feBlend mode="normal" in="SourceGraphic" in2="effect1_dropShadow" result="shape"/>
</filter>
</defs>
</svg>
